X: 32575
T: Planxty Irwin
R: waltz
M: 3/4
K: Gmajor
|:df|g2 f e>fg|d2 c B>AG|c2 A B>cd|F2 G AFD|
g2 f e>fg|d2 c B>AG|c2 A B>cd|GA/G/F FG2:|
|:d|g2 g g>fg|a3 afd|b2 b a2 g|f>ge d>ef|
g2 f e>fg|d2 c B>AG|c2 A B>cd|GA/G/F FG2:|

